polaris-icons/icons/new-icons/AddProductMajor.svg

<svg width="20" height="20" viewBox="0 0 20 20" fill="none" xmlns="http://www.w3.org/2000/svg">
<path d="M11.2759 3.5C10.2568 3.5 9.28161 3.91477 8.57472 4.64885L4.32111 9.06605C3.28165 10.1455 3.29781 11.8585 4.35745 12.9181L7.25536 15.816C8.21867 16.7793 9.77592 16.794 10.7572 15.8491L11.2077 15.4152C11.5061 15.1279 11.5151 14.6531 11.2277 14.3548C10.9404 14.0564 10.4656 14.0474 10.1673 14.3348L9.71677 14.7686C9.32424 15.1466 8.70135 15.1407 8.31602 14.7554L5.41811 11.8575C4.93646 11.3758 4.92911 10.5972 5.4016 10.1065L9.6552 5.68931C10.0793 5.24886 10.6645 5 11.2759 5H13.25C14.2165 5 15 5.7835 15 6.75V9.12148C15 9.47901 14.8545 9.82114 14.597 10.0691C14.2986 10.3565 14.2896 10.8312 14.5769 11.1296C14.8643 11.428 15.3391 11.4369 15.6374 11.1496C16.1886 10.6189 16.5 9.88665 16.5 9.12148V6.75C16.5 4.95507 15.0449 3.5 13.25 3.5H11.2759Z" fill="#4A4A4A"/>
<path d="M13 8C13.5523 8 14 7.55228 14 7C14 6.44772 13.5523 6 13 6C12.4477 6 12 6.44772 12 7C12 7.55228 12.4477 8 13 8Z" fill="#4A4A4A"/>
<path d="M14.75 12C15.1642 12 15.5 12.3358 15.5 12.75V14H16.75C17.1642 14 17.5 14.3358 17.5 14.75C17.5 15.1642 17.1642 15.5 16.75 15.5H15.5V16.75C15.5 17.1642 15.1642 17.5 14.75 17.5C14.3358 17.5 14 17.1642 14 16.75V15.5H12.75C12.3358 15.5 12 15.1642 12 14.75C12 14.3358 12.3358 14 12.75 14H14V12.75C14 12.3358 14.3358 12 14.75 12Z" fill="#4A4A4A"/>
</svg>

<svg viewBox="0 0 20 20" xmlns="http://www.w3.org/2000/svg"><path d="M11.276 3.5a3.75 3.75 0 0 0-2.701 1.149l-4.254 4.417a2.75 2.75 0 0 0 .036 3.852l2.898 2.898a2.5 2.5 0 0 0 3.502.033l.45-.434a.75.75 0 1 0-1.04-1.08l-.45.434a1 1 0 0 1-1.401-.014l-2.898-2.898a1.25 1.25 0 0 1-.016-1.75l4.253-4.418a2.25 2.25 0 0 1 1.62-.689h1.975c.966 0 1.75.784 1.75 1.75v2.371c0 .358-.146.7-.403.948a.75.75 0 1 0 1.04 1.08c.552-.53.863-1.262.863-2.028v-2.371a3.25 3.25 0 0 0-3.25-3.25h-1.974Z" fill="#5C5F62"/><path d="M13 8a1 1 0 1 0 0-2 1 1 0 0 0 0 2Z" fill="#5C5F62"/><path d="M14.75 12a.75.75 0 0 1 .75.75v1.25h1.25a.75.75 0 0 1 0 1.5h-1.25v1.25a.75.75 0 0 1-1.5 0v-1.25h-1.25a.75.75 0 0 1 0-1.5h1.25v-1.25a.75.75 0 0 1 .75-.75Z" fill="#5C5F62"/></svg>
